X:40
T:Polska efter Soldat Lind (EÖ40)
B:EÖ, nr 40
S:efter Soldat Lind
O:Bohuslän
R:Polska
Z:Nils L
M:3/4
L:1/8
K:A
(3Ace (3Ace (3Ace | (3Ace d>c B>A | (3Bdf (3Bdf (3Bdf | (3Bdf e>d c>B |
(3Ace (3Ace (3Ace | (3Ace d>c B>A | G>A B>c d>e | (3efg a2 z2 ::
a2 "^?"(3faf e2- | ea fd c2 | B>c (3dBd (3cAc | (3BGB Ac e2 |
a2 Pf2 e2- | e>a fd c2 | B>c (3dBd (3cAc | (3BGB (GB) A2 :|

